!!!!SEGMENT: pl-kk--kk-i-2--006-005_anonim--missa-iii-agnus-dei.krn
!!!cenid: 16xx:1607
!!!COM: Anonim
!!!COM-rismid: pe30004985
!!!CDT:
!!!CNT:
!!!OPR: Missa III
!!!OTL: Agnus Dei
!!!OMV: 005
!!!PDT:
!!!AGN: Sacred; Mass
!!!SMS-siglum: PL-Kk
!!!SMS-shelfmark: Kk.I.2
!!!SMS-shelfwork: 006-005 M
!!!NIFC-rismid: 300258022
!!!URL-scan: http://repozytorium.nifc.pl/skany/pl-kk-nut--i-2
!!!ONB-nifc: Części mszy: Kyrie, Gloria, Credo, Sanctus, Agnus Dei; skany: C: 0018-0019; A: 0119; T: 0223-0224; B: 0321;
**kern	**text	**kern	**text	**kern	**text	**kern	**text
*part4	*part4	*part3	*part3	*part2	*part2	*part1	*part1
*staff4	*staff4	*staff3	*staff3	*staff2	*staff2	*staff1	*staff1
*I"BASVS	*	*I"TENOR	*	*I"ALTVS	*	*I"DISCANTVS	*
*I'B	*	*I'T	*	*I'A	*	*I'S	*
*clefC4	*	*clefC3	*	*clefC3	*	*clefG2	*
*k[b-]	*	*k[b-]	*	*k[b-]	*	*k[b-]	*
*F:	*	*F:	*	*F:	*	*F:	*
*M2/1	*	*M2/1	*	*M2/1	*	*M2/1	*
*met(c|)	*	*met(c|)	*	*	*	*	*
=1	=1	=1	=1	=1	=1	=1	=1
!	!	!	!	!LO:TX:a:t=5.	!	!	!
*	*	*	*	*met(c|)	*	*met(c|)	*
0r	.	1r	.	0r	.	1f	A-
.	.	1F	A-	.	.	1cc	-gnus
=2	=2	=2	=2	=2	=2	=2	=2
1C	Ag-	1c	-gnus	0r	.	4cc\	De-
.	.	.	.	.	.	4b-/	.
.	.	.	.	.	.	4a/	.
!	!	!	!	!	!	!LO:TX:t=P:problem: znak kreski taktowej	!
.	.	.	.	.	.	4g/	.
*	*	*lig	*	*	*	*	*
[1F	.	1c	de-	.	.	4a/	.
.	.	.	.	.	.	4f/	.
.	.	.	.	.	.	[2cc\	.
=3	=3	=3	=3	=3	=3	=3	=3
2F/]	.	1d	.	1r	.	2cc\]	.
!	!	!	!	!	!	!LO:TX:t=P:problem: znak kreski taktowej	!
!LO:TX:t=P:problem: znak kreski taktowej	!	!	!	!	!	!	!
2G/	.	.	.	.	.	2b-/	.
*	*	*Xlig	*	*	*	*	*
!	!	!	!	!	!	!LO:TX:t=P:problem: znak kreski taktowej	!
1A	.	2.c/	.	2r	.	1cc	-i
.	.	.	.	2c/	A-	.	.
.	.	4B-/	.	.	.	.	.
=4	=4	=4	=4	=4	=4	=4	=4
2F/	-nus	2c/	.	1.f	-gnus	0r	.
1B-	de-	1d	.	.	.	.	.
4A/	.	4c/	.	2g\	de-	.	.
4G/	.	4B-/	.	.	.	.	.
=5	=5	=5	=5	=5	=5	=5	=5
!	!	!	!	!	!	!LO:TX:t=P:problem: znak kreski taktowej	!
2F/	.	4A/	.	2a\	-i	1r	.
.	.	4G/	.	.	.	.	.
2A/	.	1c	.	1f	qui	.	.
1G	.	.	.	.	.	1g	ÿ
.	.	2B-/	.	2e\	tol-	.	.
!!linebreak:original
=6	=6	=6	=6	=6	=6	=6	=6
!	!	!	!	!	!	!LO:TX:t=P:problem: znak kreski taktowej	!
2.F/	.	4A/	.	2f\	-lis	1cc	.
.	.	4G/	.	.	.	.	.
.	.	4A/	.	2c/	pe-	.	.
8E/	.	4B-/	.	.	.	.	.
8D/	.	.	.	.	.	.	.
*	*	*	*	*	*	*lig	*
2C/	.	1c	.	2.e\	-ca-	1cc	.
[2c\	.	.	.	.	.	.	.
.	.	.	.	4f\	-ta	.	.
=7	=7	=7	=7	=7	=7	=7	=7
!	!	!	!	!	!	!LO:TX:t=P:problem: znak kreski taktowej	!
2c\]	.	2G/	-i	2d/	mun-	1dd	.
!	!	!LO:TX:t=P:problem: znak kreski taktowej	!	!	!	!	!
2B-\	.	2G/	ÿ	2g\	.	.	.
*	*	*	*	*	*	*Xlig	*
1c	-i	4A/	.	2e/	.	2.cc/	.
.	.	4G/	.	.	.	.	.
.	.	4A/	.	[2f\	.	.	.
.	.	4B-/	.	.	.	4b-/	.
=8	=8	=8	=8	=8	=8	=8	=8
0r	.	2c/	.	4f\]	.	4a/	.
.	.	.	.	4e/	.	4g/	.
!	!	!LO:SIC:v:t=custos G	!	!	!	!	!
!	!	!LO:TX:t=P:problem: znak kreski taktowej	!	!	!	!	!
.	.	2A/	.	4d/	.	1cc	.
!	!	!	!	!LO:TX:t=P:problem: znak kreski taktowej	!	!	!
.	.	.	.	4c/	.	.	.
.	.	1G	.	1d	.	.	.
.	.	.	.	.	.	2b-/	.
=9	=9	=9	=9	=9	=9	=9	=9
!	!	!	!	!LO:TX:t=P:problem: znak kreski taktowej	!	!	!
!	!	!LO:TX:t=P:problem: znak kreski taktowej	!	!	!	!	!
2r	.	1c	.	1c	-di	0cc	.
!	!	!	!	!	!	!	!
2C/	qui	.	.	.	.	.	.
2.F/	tol-	2r	.	1r	.	.	.
.	.	2c/	qui	.	.	.	.
4E/	.	.	.	.	.	.	.
!!pagebreak:original
=10	=10	=10	=10	=10	=10	=10	=10
2F/	.	2.d\	tol-	1r	.	0r	.
!LO:SIC:v:t=custos A	!	!	!	!	!	!	!
!LO:TX:t=P:problem: znak kreski taktowej	!	!	!	!	!	!	!
2G/	-lis	.	.	.	.	.	.
!	!	!LO:TX:t=P:problem: znak kreski taktowej	!	!	!	!	!
.	.	4e\	-lis	.	.	.	.
2.A/	pec-	2f\	pec-	2r	.	.	.
.	.	2e\	-ca-	2c\	ÿ	.	.
4G/	-ca-	.	.	.	.	.	.
=11	=11	=11	=11	=11	=11	=11	=11
2A/	-ta	2c/	-ta	2.f\	.	0r	.
1B-	.	1d	mun-	.	.	.	.
!	!	!	!	!LO:TX:t=P:problem: znak kreski taktowej	!	!	!
.	.	.	.	4e\	.	.	.
!	!	!	!	!LO:SIC:v:t=custos g	!	!	!
.	.	.	.	2f\	.	.	.
4A/	.	4c/	.	2g\	.	.	.
4G/	.	4B-/	.	.	.	.	.
=12	=12	=12	=12	=12	=12	=12	=12
*lig	*	*	*	*	*	*	*
!	!	!	!	!	!	!LO:SIC:v:t=custos cc	!
!	!	!LO:TX:t=P:problem: znak kreski taktowej	!	!	!	!	!
1F	mun-	1A	-di	2a\	.	2r	.
!	!	!	!	!	!	!LO:TX:t=P:problem: znak kreski taktowej	!
.	.	.	.	1f	.	2cc\	Qui
1B-	.	1r	.	.	.	2.dd\	tol-
.	.	.	.	4e\	.	.	.
.	.	.	.	4d\	.	4ee\	-lis
*Xlig	*	*	*	*	*	*	*
=13	=13	=13	=13	=13	=13	=13	=13
!LO:TX:t=P:problem: znak kreski taktowej	!	!	!	!	!	!	!
1A	-di	2r	.	2.c/	.	2ff\	pec-
!	!	!	!	!	!	!LO:TX:t=P:problem: znak kreski taktowej	!
!	!	!LO:TX:t=P:problem: znak kreski taktowej	!	!	!	!	!
.	.	2c/	ÿ	.	.	2ee\	-ca-
.	.	.	.	4d/	.	.	.
!LO:TX:a:t=3.	!	!	!	!	!	!	!
1r	.	2c/	.	2e\	.	2cc\	-ta
.	.	2G/	.	[2d\	.	[2dd\	mun-
!!linebreak:original
=14	=14	=14	=14	=14	=14	=14	=14
0r	.	2B-/	.	2d\]	.	2dd\]	.
!	!	!	!	!	!	!LO:TX:t=P:problem: znak kreski taktowej	!
!	!	!	!	!LO:TX:t=P:problem: znak kreski taktowej	!	!	!
!	!	!LO:TX:t=P:problem: znak kreski taktowej	!	!	!	!	!
.	.	2c/	.	2.g\	.	2cc\	.
.	.	2d\	.	.	.	4b-/	.
.	.	.	.	4f\	.	4a/	.
.	.	2d\	.	[2f\	.	4g/	.
.	.	.	.	.	.	4f/	.
=15	=15	=15	=15	=15	=15	=15	=15
1C	ÿ	2.c/	.	2f\]	.	1g	.
!	!	!	!	!LO:TX:t=P:problem: znak kreski taktowej	!	!	!
.	.	.	.	2e\	.	.	.
.	.	4B-/	.	.	.	.	.
2.F/	.	4A/	.	2f\	.	1f	-di
.	.	4G/	.	.	.	.	.
.	.	[2c\	.	2c/	.	.	.
4E/	.	.	.	.	.	.	.
=16	=16	=16	=16	=16	=16	=16	=16
!	!	!	!	!	!	!LO:TX:t=P:problem: znak kreski taktowej	!
2F/	.	2c\]	.	1d	.	1r	.
2G/	.	2B-/	.	.	.	.	.
2A/	.	1c	.	2c/	.	1cc	mi-
2F/	.	.	.	2f\	.	.	.
=17	=17	=17	=17	=17	=17	=17	=17
2G/	.	2r	.	2d/	mi-	2b-/	-ſe-
2A/	.	2c/	mi-	1f	-ſe-	2.a/	-re-
1B-	.	2.d\	-ſe-	.	.	.	.
.	.	.	.	.	.	8g/	-re
.	.	.	.	.	.	8f/	.
.	.	.	.	4e\	-re-	2g/	no-
!	!	!LO:SIC:v:t=custos f	!	!	!	!	!
.	.	4e\	-re-	4d\	-re	.	.
=18	=18	=18	=18	=18	=18	=18	=18
!	!	!	!	!	!	!LO:TX:t=P:problem: znak kreski taktowej	!
!LO:TX:t=P:problem: znak kreski taktowej	!	!	!	!	!	!	!
1A	.	2f\	-re	2.c\	no-	1a	-bis
.	.	2e\	no-	.	.	.	.
.	.	.	.	4d\	.	.	.
2r	.	2c/	.	2e\	.	2r	.
2D/	mi-	[2d\	.	[2f\	.	2a/	ÿ
!!pagebreak:original
=19	=19	=19	=19	=19	=19	=19	=19
2D/	-ſe-	2d\]	.	2f\]	.	2f/	.
!	!	!	!	!	!	!LO:TX:t=P:problem: znak kreski taktowej	!
2E/	-re-	4c/	.	4e\	.	2g/	.
!	!	!	!	!LO:TX:t=P:problem: znak kreski taktowej	!	!	!
!	!	!LO:TX:t=P:problem: znak kreski taktowej	!	!	!	!	!
.	.	4B-/	.	4d\	-bis	.	.
2F/	-re-	2A/	-bis	2c/	ÿ	2a/	.
2D/	-re	[2d/	ÿ	2f\	.	[2b-/	.
=20	=20	=20	=20	=20	=20	=20	=20
*lig	*	*	*	*	*	*	*
1F	no-	4d/]	.	2f\	.	4b-/]	.
.	.	4c/	.	.	.	4a/	.
.	.	4B-/	.	2f\	.	1a	.
!	!	!LO:TX:t=P:problem: znak kreski taktowej	!	!	!	!	!
.	.	4A/	.	.	.	.	.
1G	.	1B-	.	2d\	.	.	.
.	.	.	.	2e\	.	2g/	.
!	!	!	!	!LO:SIC:v:t=custos f	!	!LO:SIC:v:t=custos a	!
*Xlig	*	*	*	*	*	*	*
=21	=21	=21	=21	=21	=21	=21	=21
2D/	-b(is)	1.A	.	2.f\	.	2.a/	.
1F	.	.	.	.	.	.	.
.	.	.	.	4e\	.	4g/	.
.	.	.	.	2c/	.	4f/	.
.	.	.	.	.	.	4e/	.
2E/	ÿ	2G/	.	2e\	.	[2g/	.
=22	=22	=22	=22	=22	=22	=22	=22
!	!	!	!	!	!	!LO:TX:t=P:problem: znak kreski taktowej	!
2F/	.	2A/	.	2d\	.	4g/]	.
.	.	.	.	.	.	4f/	.
2D/	.	2F/	.	2B-/	.	1f	.
1C	.	1G	.	1c	.	.	.
.	.	.	.	.	.	2e/	.
=23	=23	=23	=23	=23	=23	=23	=23
!	!	!LO:SIC:v:t=custos F	!	!	!	!	!
0F	.	0F;	.	0c;	.	0f	.
=24||	=24||	=24||	=24||	=24||	=24||	=24||	=24||
*met(c|)	*	*met(c|)	*	*	*	*	*
!	!	!LO:TX:a:t=1.	!	!	!	!	!
*	*	*	*	*met(c|)	*	*met(c|)	*
!	!	!LO:TX:t=P:problem: znak kreski taktowej	!	!	!	!	!
0r	.	1r	.	1c	Ag-	0r	.
.	.	1c	A-	2A/	-nus	.	.
.	.	.	.	2F/	De-	.	.
!!linebreak:original
=25	=25	=25	=25	=25	=25	=25	=25
!LO:TX:t=P:problem: znak kreski taktowej	!	!	!	!	!	!	!
1r	.	2A/	-gnus	1c	-i	1cc	A-
.	.	2F/	de-	.	.	.	.
1F	A-	1c	-i	2F/	ÿ	2a/	-gnus
.	.	.	.	[2f\	.	4f/	de-
.	.	.	.	.	.	4g/	-i
=26	=26	=26	=26	=26	=26	=26	=26
2D/	-gnus	2r	.	2f\]	.	4a/	.
.	.	.	.	.	.	4b-/	.
!	!	!	!	!LO:TX:t=P:problem: znak kreski taktowej	!	!	!
!LO:TX:t=P:problem: znak kreski taktowej	!	!	!	!	!	!	!
2C/	.	2G/	ÿ	2e\	.	1cc	.
1G	de-	2B-/	.	1d	.	.	.
.	.	2B-/	.	.	.	2b-/	.
=27	=27	=27	=27	=27	=27	=27	=27
2C/	-i	4G/	.	2c/	.	2cc/	.
.	.	4A/	.	.	.	.	.
!	!	!	!	!	!	!LO:TX:t=P:problem: znak kreski taktowej	!
!	!	!	!	!LO:TX:t=P:problem: znak kreski taktowej	!	!	!
2G/	ÿ	4B-/	.	2d\	.	2b-/	.
.	.	4c/	.	.	.	.	.
2F/	.	4d\	.	4f\	.	2a/	.
.	.	4c/	.	4e\	.	.	.
2A/	.	[2c\	.	4e\	.	2f/	.
.	.	.	.	8d/	.	.	.
.	.	.	.	8c/	.	.	.
=28	=28	=28	=28	=28	=28	=28	=28
1G	.	2c\]	.	2.d\	.	4g/	.
.	.	.	.	.	.	4a/	.
!	!	!LO:TX:t=P:problem: znak kreski taktowej	!	!	!	!	!
.	.	2B-/	.	.	.	4b-/	.
!	!	!	!	!	!	!LO:TX:t=P:problem: znak kreski taktowej	!
.	.	.	.	4e\	.	4g/	.
*	*	*lig	*	*	*	*	*
2F/	.	1c	.	2f\	.	4a/	.
!	!	!	!	!	!	!LO:SIC:v:t=custos cc	!
.	.	.	.	.	.	4b-/	.
!	!	!	!	!LO:SIC:v:t=custos f	!	!	!
2E/	.	.	.	2g\	.	[2cc\	.
!!linebreak:original
=29	=29	=29	=29	=29	=29	=29	=29
2F/	.	1d	.	2f\	.	2cc\]	.
!	!	!	!	!	!	!LO:TX:t=P:problem: znak kreski taktowej	!
!LO:TX:t=P:problem: znak kreski taktowej	!	!	!	!	!	!	!
2G/	.	.	.	2d\	.	2b-/	.
*	*	*Xlig	*	*	*	*	*
2.C/	.	2.c/	.	2e\	.	[1cc	i
.	.	.	.	[2g\	.	.	.
!	!	!LO:SIC:v:t=custos G	!	!	!	!	!
4D/	.	4B-/	.	.	.	.	.
=30	=30	=30	=30	=30	=30	=30	=30
2E/	.	2G/	.	4g\]	.	1cc]	.
.	.	.	.	4f\	.	.	.
2F/	.	2A/	.	1f	.	.	.
1C	.	1G	.	.	.	2r	.
.	.	.	.	2e\	.	2cc\	A-
=31	=31	=31	=31	=31	=31	=31	=31
!	!	!LO:TX:t=P:problem: znak kreski taktowej	!	!	!	!	!
2r	.	1F	.	2f\	.	2a/	-gnus
2F/	a-	.	.	2c/	.	1f	De-
2D/	-gnus	2r	.	2d/	.	.	.
2C/	.	2c/	A-	2e\	.	2g/	-i
=32	=32	=32	=32	=32	=32	=32	=32
0F	.	2A/	-gnus	2c/	.	2.a/	.
.	.	4F/	.	2d\	.	.	.
!	!	!LO:TX:t=P:problem: znak kreski taktowej	!	!	!	!	!
.	.	4G/	.	.	.	4b-/	.
.	.	4A/	De-	2c/	.	2cc\	.
.	.	4B-/	.	.	.	.	.
.	.	[2c\	.	[2f\	.	2a/	.
=33	=33	=33	=33	=33	=33	=33	=33
1G	de-	2c\]	.	2f\]	.	1b-	.
!	!	!	!	!LO:TX:t=P:problem: znak kreski taktowej	!	!	!
.	.	2B-/	.	2e\	.	.	.
[1F	-i	[1c	-i	1f	.	[1a	.
!!pagebreak:original
=34	=34	=34	=34	=34	=34	=34	=34
!	!	!LO:TX:t=P:problem: znak kreski taktowej	!	!	!	!	!
!LO:TX:t=P:problem: znak kreski taktowej	!	!	!	!	!	!	!
1F]	.	1c]	.	2r	.	0a_	.
!	!	!	!	!LO:TX:t=P:problem: znak kreski taktowej	!	!	!
.	.	.	.	2c/	qui	.	.
!LO:SIC:v:t=custos F	!	!	!	!	!	!	!
2r	.	2r	.	2.f\	tol-	.	.
2F/	qui	2c/	qui	.	.	.	.
.	.	.	.	4e\	-lis	.	.
=35	=35	=35	=35	=35	=35	=35	=35
!	!	!	!	!	!	!LO:TX:t=P:problem: znak kreski taktowej	!
1.F	tol-	2.f\	tol-	2d/	p(ec)-	1a]	.
.	.	.	.	2c/	-c(a)-	.	.
!	!	!LO:TX:t=P:problem: znak kreski taktowej	!	!	!	!	!
.	.	4e\	-lis	.	.	.	.
.	.	2d\	pec-	1f	-ta	2r	.
2F/	-l(is)	2c\	.	.	.	2a/	qui
=36	=36	=36	=36	=36	=36	=36	=36
2D/	pec-	2d\	-ca-	2r	.	1.a	tol-
2D/	-ca-	2d\	-ta	1f	qui	.	.
2.F/	-ta	2c/	mu(n)-	.	.	.	.
.	.	2A/	-di	2f\	tol-	2a/	-lis
4G/	mun-	.	.	.	.	.	.
=37	=37	=37	=37	=37	=37	=37	=37
*lig	*	*	*	*	*	*	*
1A	.	2r	.	2e\	-lis	2a/	pec-
.	.	2.f\	y	2c/	pec-	2a/	-ca-
*	*	*	*	*lig	*	*	*
1B-	.	.	.	1d	-ca-	2f/	-ta
.	.	4e\	.	.	.	.	.
.	.	[2d\	.	.	.	2g/	mun-
*Xlig	*	*	*	*	*	*	*
!!linebreak:original
=38	=38	=38	=38	=38	=38	=38	=38
!	!	!	!	!LO:SIC:v:t=custos d	!	!	!
!	!	!	!	!LO:TX:t=P:problem: znak kreski taktowej	!	!	!
!LO:TX:t=P:problem: znak kreski taktowej	!	!	!	!	!	!	!
1A	.	2d\]	.	1e	.	0a	-di
!	!	!LO:TX:t=P:problem: znak kreski taktowej	!	!	!	!	!
.	.	2c/	.	.	.	.	.
*lig	*	*	*	*Xlig	*	*	*
1D	.	[1d	.	2d/	-ta	.	.
.	.	.	.	[2f\	mun-	.	.
=39	=39	=39	=39	=39	=39	=39	=39
1G	.	2d\]	.	2f\]	.	1b-	.
!	!	!	!	!LO:TX:t=P:problem: znak kreski taktowej	!	!	!
.	.	4c/	.	2e\	.	.	.
!	!	!LO:TX:t=P:problem: znak kreski taktowej	!	!	!	!	!
.	.	4B-/	.	.	.	.	.
*Xlig	*	*	*	*	*	*	*
2F/	.	2c/	.	1f	-di	2.a/	.
2D/	.	2d\	.	.	.	.	.
.	.	.	.	.	.	4b-/	.
=40	=40	=40	=40	=40	=40	=40	=40
2A/	.	2c/	.	2e\	ÿ	4cc\	.
!	!	!	!	!	!	!LO:SIC:v:t=custos dd	!
.	.	.	.	.	.	4a/	.
!LO:TX:t=P:problem: znak kreski taktowej	!	!	!	!	!	!	!
2F/	.	2.f\	.	2.a\	.	2.dd\	.
*lig	*	*	*	*	*	*	*
1A	.	.	.	.	.	.	.
.	.	4e\	.	4g\	.	4cc\	.
.	.	4d/	.	4e\	.	[2cc\	.
!	!	!LO:SIC:v:t=custos d	!	!	!	!	!
.	.	4c/	.	4f\	.	.	.
=41	=41	=41	=41	=41	=41	=41	=41
1G	.	1d	.	1g	.	2cc\]	.
!	!	!	!	!	!	!LO:TX:t=P:problem: znak kreski taktowej	!
.	.	.	.	.	.	2b-/	.
*Xlig	*	*	*	*	*	*	*
2C/	-di	1c	.	2.e\	.	2cc\	.
2c\	.	.	.	.	.	2g/	do-
.	.	.	.	4f\	.	.	.
=42	=42	=42	=42	=42	=42	=42	=42
2B-\	Do-	2r	.	1g	.	2b-/	-na
!	!	!	!	!	!	!LO:TX:t=P:problem: znak kreski taktowej	!
!	!	!LO:TX:t=P:problem: znak kreski taktowej	!	!	!	!	!
2G/	-na	2g\	do-	.	.	2b-/	no-
2A\	no-	2f\	-na	2c/	.	2a/	-bis
!	!	!	!	!	!	!LO:TX:t=P:problem: znak kreski taktowej	!
2B-\	-b(is)	2d/	no-	[2f\	.	2dd\	pa-
!!linebreak:original
=43	=43	=43	=43	=43	=43	=43	=43
!LO:TX:t=P:problem: znak kreski taktowej	!	!	!	!	!	!	!
1c	pa-	2e/	-bis	2f\]	.	2.cc\	.
!	!	!	!	!LO:TX:t=P:problem: znak kreski taktowej	!	!	!
.	.	1c	pa-	2e\	.	.	.
.	.	.	.	.	.	4b-/	.
2F/	.	.	.	2f\	.	2a/	.
2G/	.	2B-/	-cem	2d/	.	4g/	.
.	.	.	.	.	.	4f/	.
=44	=44	=44	=44	=44	=44	=44	=44
!	!	!LO:TX:t=P:problem: znak kreski taktowej	!	!	!	!	!
1A	.	1c	.	4c/	.	2e/	.
.	.	.	.	4d/	.	.	.
.	.	.	.	4e\	.	2cc\	.
!	!	!	!	!LO:TX:t=P:problem: znak kreski taktowej	!	!	!
.	.	.	.	4f\	.	.	.
2G/	.	2r	.	1g	.	2b-/	.
!LO:SIC:v:t=custos F	!	!	!	!	!	!	!
2C/	-trem	2c/	ÿ	.	.	2g/	.
=45	=45	=45	=45	=45	=45	=45	=45
2.F/	ÿ	2A/	.	2r	.	0a	-cem
!	!	!	!	!LO:TX:t=P:problem: znak kreski taktowej	!	!	!
!	!	!LO:TX:t=P:problem: znak kreski taktowej	!	!	!	!	!
.	.	2F/	.	2f\	do-	.	.
4G/	.	.	.	.	.	.	.
2A/	.	2.c/	.	2e\	-na	.	.
2A/	.	.	.	2c/	no-	.	.
.	.	4B-/	.	.	.	.	.
=46	=46	=46	=46	=46	=46	=46	=46
2B-/	.	2G/	.	2d/	-bis	2r	.
2A/	.	2A/	.	1f	pa-	2cc\	do-
1G	.	1B-	.	.	.	2b-/	-na
!	!	!	!	!LO:SIC:v:t=custos f	!	!	!
.	.	.	.	2e/	-tem	2g/	no-
!!pagebreak:original
=47	=47	=47	=47	=47	=47	=47	=47
*	*	*lig	*	*	*	*	*
2F/	.	1c	.	2f\	.	2a/	-bis
2A/	.	.	.	4e\	.	1cc	pa-
!	!	!	!	!LO:TX:t=P:problem: znak kreski taktowej	!	!	!
.	.	.	.	4f\	.	.	.
1G	.	1d	.	2g\	.	.	.
.	.	.	.	2g\	.	2b-/	-cem
!	!	!	!	!	!	!LO:SIC:v:t=custos cc	!
*	*	*Xlig	*	*	*	*	*
=48	=48	=48	=48	=48	=48	=48	=48
!LO:TX:t=P:problem: znak kreski taktowej	!	!	!	!	!	!	!
1C	.	2c/	do-	2e\	.	2cc\	ÿ
!	!	!	!	!	!	!LO:TX:t=P:problem: znak kreski taktowej	!
!	!	!LO:TX:t=P:problem: znak kreski taktowej	!	!	!	!	!
.	.	2c/	-na	1c	.	2g/	.
2r	.	2A/	no-	.	.	1a	.
2F/	ÿ	2F/	-bis	2d\	.	.	.
=49	=49	=49	=49	=49	=49	=49	=49
2E-X/	.	1c	pa-	1e	ÿ	2g/	.
2C/	.	.	.	.	.	2.g/	.
2D/	.	2B-/	.	2d\	.	.	.
.	.	.	.	.	.	4f/	.
2F/	.	2A/	.	[2c/	.	[2f/	.
=50	=50	=50	=50	=50	=50	=50	=50
1C	.	1G	.	4c/]	.	2f/]	.
.	.	.	.	4B-/	.	.	.
!	!	!	!	!LO:TX:t=P:problem: znak kreski taktowej	!	!	!
.	.	.	.	2c/	.	2e/	.
[1F;	.	[1F	-cem	2.A/	.	[1f	.
.	.	.	.	8G/	.	.	.
.	.	.	.	8F/	.	.	.
=51	=51	=51	=51	=51	=51	=51	=51
0F]	.	0F]	.	0c;	.	0f]	.
==	==	==	==	==	==	==	==
*-	*-	*-	*-	*-	*-	*-	*-
!!!system-decoration: [(s1,s2,s3,s4)]
!!!ENC: Filip Voros
!!!END: 2022-01-04
